X:1
T:Fib
M:4/4
L:1/4
Q:1/4=212
K:C
% op ,
A,CEC & Acec |
% op var
DB,G,B, & BdGB |
% id num
W: num
% op {
DB,G,B, & BGBG |
% op if
EFBF & ffbe |
% op (
EFBF & efef |
% id num
W: num
% op <=
A,CEC & cAAA |
% num 1
A,CEA, & czzz |
% op )
DB,G,B, & dBBd |
% op {
DB,G,B, & BGBG |
% op return
EFBF & befb |
% op (
EFBF & efef |
% op ,
A,CEC & Acec |
% id num
W: num
% op )
A,CEC & AccA |
% op }
DB,G,B, & BGGB |
% op return
DB,G,B, & GdBG |
% op (
EFBF & efef |
% op ,
EFBF & efbf |
% id Fib
W: Fib
% op (
A,CEC & AcAc |
% op ,
A,CEC & Acec |
% id num
W: num
% op -
DB,G,B, & dGGd |
% num 1
DB,G,D & Bzzz |
% op )
EFBF & effe |
% op +
EFBF & ebeb |
% id Fib
W: Fib
% op (
A,CEC & AcAc |
% op ,
A,CEC & Acec |
% id num
W: num
% op -
DB,G,B, & dGGd |
% num 2
DB,G,D & Bzzd |
% op )
EFBF & effe |
% op )
EFBF & effe |
% op }
A,CEC & ceec |

